public/assets/kiss-day/floating-hearts-pack.svg

<?xml version="1.0" encoding="UTF-8" standalone="no"?>
<svg
   width="412"
   height="275"
   viewBox="0 0 412 275"
   version="1.1"
   id="svg94"
   xmlns="http://www.w3.org/2000/svg"
   xmlns:svg="http://www.w3.org/2000/svg">
  <defs
     id="defs98" />
  <!-- Heart 1 - Large baby pink -->
  <g
     id="g10"
     transform="translate(-70,-55)">
    <path
       d="m 100,120 c 0,0 -30,-20 -30,-40 0,-15 8,-22 16,-22 7,0 12,4 14,10 2,-6 7,-10 14,-10 8,0 16,7 16,22 0,20 -30,40 -30,40 z"
       fill="#ffffff"
       id="path2" />
    <path
       d="m 100,115 c 0,0 -27,-18 -27,-35 0,-13 6,-19 13,-19 6,0 11,4 14,9 3,-5 8,-9 14,-9 7,0 13,6 13,19 0,17 -27,35 -27,35 z"
       fill="none"
       stroke="#8b6f47"
       stroke-width="4"
       id="path4" />
    <path
       d="m 100,112 c 0,0 -24,-16 -24,-32 0,-11 5,-16 11,-16 5,0 10,3 13,7 3,-4 8,-7 13,-7 6,0 11,5 11,16 0,16 -24,32 -24,32 z"
       fill="#ffd4e5"
       id="path6" />
    <ellipse
       cx="92"
       cy="75"
       rx="8"
       ry="5"
       fill="#ffffff"
       opacity="0.5"
       id="ellipse8" />
  </g>
  <!-- Heart 2 - Medium peach -->
  <g
     id="g20"
     transform="translate(-70,-55)">
    <path
       d="m 220,100 c 0,0 -20,-13 -20,-27 0,-10 5,-15 11,-15 5,0 8,3 9,7 1,-4 4,-7 9,-7 6,0 11,5 11,15 0,14 -20,27 -20,27 z"
       fill="#ffffff"
       id="path12" />
    <path
       d="m 220,96 c 0,0 -18,-11 -18,-23 0,-9 4,-13 9,-13 4,0 7,3 9,6 2,-3 5,-6 9,-6 5,0 9,4 9,13 0,12 -18,23 -18,23 z"
       fill="none"
       stroke="#8b6f47"
       stroke-width="3"
       id="path14" />
    <path
       d="m 220,94 c 0,0 -16,-10 -16,-21 0,-8 3,-11 7,-11 4,0 7,2 9,5 2,-3 5,-5 9,-5 4,0 7,3 7,11 0,11 -16,21 -16,21 z"
       fill="#ffdab9"
       id="path16" />
    <ellipse
       cx="214"
       cy="70"
       rx="6"
       ry="4"
       fill="#ffffff"
       opacity="0.5"
       id="ellipse18" />
  </g>
  <!-- Heart 3 - Small baby pink -->
  <g
     id="g28"
     transform="translate(-70,-55)">
    <path
       d="m 320,80 c 0,0 -12,-8 -12,-16 0,-6 3,-9 7,-9 3,0 5,2 5,4 0,-2 2,-4 5,-4 4,0 7,3 7,9 0,8 -12,16 -12,16 z"
       fill="#ffffff"
       id="path22" />
    <path
       d="m 320,77 c 0,0 -10,-7 -10,-13 0,-5 2,-7 5,-7 2,0 4,2 5,3 1,-1 3,-3 5,-3 3,0 5,2 5,7 0,6 -10,13 -10,13 z"
       fill="none"
       stroke="#8b6f47"
       stroke-width="2.5"
       id="path24" />
    <path
       d="m 320,75 c 0,0 -8,-6 -8,-11 0,-4 1,-6 3,-6 2,0 4,1 5,3 1,-2 3,-3 5,-3 2,0 3,2 3,6 0,5 -8,11 -8,11 z"
       fill="#ffd4e5"
       id="path26" />
  </g>
  <!-- Heart 4 - Large peach -->
  <g
     id="g38"
     transform="translate(-70,-55)">
    <path
       d="m 450,120 c 0,0 -30,-20 -30,-40 0,-15 8,-22 16,-22 7,0 12,4 14,10 2,-6 7,-10 14,-10 8,0 16,7 16,22 0,20 -30,40 -30,40 z"
       fill="#ffffff"
       id="path30" />
    <path
       d="m 450,115 c 0,0 -27,-18 -27,-35 0,-13 6,-19 13,-19 6,0 11,4 14,9 3,-5 8,-9 14,-9 7,0 13,6 13,19 0,17 -27,35 -27,35 z"
       fill="none"
       stroke="#8b6f47"
       stroke-width="4"
       id="path32" />
    <path
       d="m 450,112 c 0,0 -24,-16 -24,-32 0,-11 5,-16 11,-16 5,0 10,3 13,7 3,-4 8,-7 13,-7 6,0 11,5 11,16 0,16 -24,32 -24,32 z"
       fill="#ffdab9"
       id="path34" />
    <ellipse
       cx="442"
       cy="75"
       rx="8"
       ry="5"
       fill="#ffffff"
       opacity="0.5"
       id="ellipse36" />
  </g>
  <!-- Heart 5 - Tiny baby pink -->
  <g
     id="g46"
     transform="translate(-70,-55)">
    <path
       d="m 100,230 c 0,0 -8,-5 -8,-10 0,-3 2,-5 4,-5 1,0 2,1 4,2 2,-1 3,-2 4,-2 2,0 4,2 4,5 0,5 -8,10 -8,10 z"
       fill="#ffffff"
       id="path40" />
    <path
       d="m 100,228 c 0,0 -6,-4 -6,-8 0,-2 1,-4 2,-4 1,0 2,1 4,2 2,-1 3,-2 4,-2 1,0 2,2 2,4 0,4 -6,8 -6,8 z"
       fill="none"
       stroke="#8b6f47"
       stroke-width="2"
       id="path42" />
    <path
       d="m 100,226 c 0,0 -5,-3 -5,-6 0,-2 1,-3 2,-3 1,0 2,1 3,2 1,-1 2,-2 3,-2 1,0 2,1 2,3 0,3 -5,6 -5,6 z"
       fill="#ffd4e5"
       id="path44" />
  </g>
  <!-- Heart 6 - Medium-small peach -->
  <g
     id="g56"
     transform="translate(-70,-55)">
    <path
       d="m 200,250 c 0,0 -15,-12 -15,-23 0,-7 4,-11 9,-11 4,0 7,2 6,5 -1,-3 2,-5 6,-5 5,0 9,4 9,11 0,11 -15,23 -15,23 z"
       fill="#ffffff"
       id="path48" />
    <path
       d="m 200,247 c 0,0 -13,-11 -13,-20 0,-6 3,-9 7,-9 3,0 6,2 6,4 0,-2 3,-4 6,-4 4,0 7,3 7,9 0,9 -13,20 -13,20 z"
       fill="none"
       stroke="#8b6f47"
       stroke-width="3"
       id="path50" />
    <path
       d="m 200,245 c 0,0 -11,-10 -11,-18 0,-5 2,-8 5,-8 3,0 5,2 6,4 1,-2 3,-4 6,-4 3,0 5,3 5,8 0,8 -11,18 -11,18 z"
       fill="#ffdab9"
       id="path52" />
    <ellipse
       cx="195"
       cy="225"
       rx="5"
       ry="3"
       fill="#ffffff"
       opacity="0.5"
       id="ellipse54" />
  </g>
  <!-- Heart 7 - Medium baby pink -->
  <g
     id="g66"
     transform="translate(-70,-55)">
    <path
       d="m 330,220 c 0,0 -20,-13 -20,-27 0,-10 5,-15 11,-15 5,0 8,3 9,7 1,-4 4,-7 9,-7 6,0 11,5 11,15 0,14 -20,27 -20,27 z"
       fill="#ffffff"
       id="path58" />
    <path
       d="m 330,216 c 0,0 -18,-11 -18,-23 0,-9 4,-13 9,-13 4,0 7,3 9,6 2,-3 5,-6 9,-6 5,0 9,4 9,13 0,12 -18,23 -18,23 z"
       fill="none"
       stroke="#8b6f47"
       stroke-width="3"
       id="path60" />
    <path
       d="m 330,214 c 0,0 -16,-10 -16,-21 0,-8 3,-11 7,-11 4,0 7,2 9,5 2,-3 5,-5 9,-5 4,0 7,3 7,11 0,11 -16,21 -16,21 z"
       fill="#ffd4e5"
       id="path62" />
    <ellipse
       cx="324"
       cy="190"
       rx="6"
       ry="4"
       fill="#ffffff"
       opacity="0.5"
       id="ellipse64" />
  </g>
  <!-- Heart 8 - Small peach -->
  <g
     id="g74"
     transform="translate(-70,-55)">
    <path
       d="m 470,240 c 0,0 -12,-8 -12,-16 0,-6 3,-9 7,-9 3,0 5,2 5,4 0,-2 2,-4 5,-4 4,0 7,3 7,9 0,8 -12,16 -12,16 z"
       fill="#ffffff"
       id="path68" />
    <path
       d="m 470,237 c 0,0 -10,-7 -10,-13 0,-5 2,-7 5,-7 2,0 4,2 5,3 1,-1 3,-3 5,-3 3,0 5,2 5,7 0,6 -10,13 -10,13 z"
       fill="none"
       stroke="#8b6f47"
       stroke-width="2.5"
       id="path70" />
    <path
       d="m 470,235 c 0,0 -8,-6 -8,-11 0,-4 1,-6 3,-6 2,0 4,1 5,3 1,-2 3,-3 5,-3 2,0 3,2 3,6 0,5 -8,11 -8,11 z"
       fill="#ffdab9"
       id="path72" />
  </g>
  <!-- Heart 9 - Tiny peach -->
  <g
     id="g82"
     transform="translate(-70,-55)">
    <path
       d="m 150,330 c 0,0 -8,-5 -8,-10 0,-3 2,-5 4,-5 1,0 2,1 4,2 2,-1 3,-2 4,-2 2,0 4,2 4,5 0,5 -8,10 -8,10 z"
       fill="#ffffff"
       id="path76" />
    <path
       d="m 150,328 c 0,0 -6,-4 -6,-8 0,-2 1,-4 2,-4 1,0 2,1 4,2 2,-1 3,-2 4,-2 1,0 2,2 2,4 0,4 -6,8 -6,8 z"
       fill="none"
       stroke="#8b6f47"
       stroke-width="2"
       id="path78" />
    <path
       d="m 150,326 c 0,0 -5,-3 -5,-6 0,-2 1,-3 2,-3 1,0 2,1 3,2 1,-1 2,-2 3,-2 1,0 2,1 2,3 0,3 -5,6 -5,6 z"
       fill="#ffdab9"
       id="path80" />
  </g>
  <!-- Heart 10 - Medium-large baby pink -->
  <g
     id="g92"
     transform="translate(-70,-55)">
    <path
       d="m 380,330 c 0,0 -25,-17 -25,-37 0,-13 7,-20 16,-20 7,0 12,4 9,9 -3,-5 2,-9 9,-9 9,0 16,7 16,20 0,20 -25,37 -25,37 z"
       fill="#ffffff"
       id="path84" />
    <path
       d="m 380,325 c 0,0 -22,-15 -22,-32 0,-12 6,-18 13,-18 6,0 11,4 9,8 -2,-4 3,-8 9,-8 7,0 13,6 13,18 0,17 -22,32 -22,32 z"
       fill="none"
       stroke="#8b6f47"
       stroke-width="4"
       id="path86" />
    <path
       d="m 380,322 c 0,0 -19,-14 -19,-29 0,-10 5,-16 11,-16 5,0 9,3 8,7 -1,-4 3,-7 8,-7 6,0 11,6 11,16 0,15 -19,29 -19,29 z"
       fill="#ffd4e5"
       id="path88" />
    <ellipse
       cx="373"
       cy="288"
       rx="7"
       ry="5"
       fill="#ffffff"
       opacity="0.5"
       id="ellipse90" />
  </g>
</svg>

<svg width="600" height="400" viewBox="0 0 600 400" xmlns="http://www.w3.org/2000/svg">
  <!-- Heart 1 - Large baby pink -->
  <g>
    <path d="M 100 120 C 100 120 70 100 70 80 C 70 65 78 58 86 58 C 93 58 98 62 100 68 C 102 62 107 58 114 58 C 122 58 130 65 130 80 C 130 100 100 120 100 120 Z" fill="#FFFFFF"/>
    <path d="M 100 115 C 100 115 73 97 73 80 C 73 67 79 61 86 61 C 92 61 97 65 100 70 C 103 65 108 61 114 61 C 121 61 127 67 127 80 C 127 97 100 115 100 115 Z" fill="none" stroke="#8B6F47" stroke-width="4"/>
    <path d="M 100 112 C 100 112 76 96 76 80 C 76 69 81 64 87 64 C 92 64 97 67 100 71 C 103 67 108 64 113 64 C 119 64 124 69 124 80 C 124 96 100 112 100 112 Z" fill="#FFD4E5"/>
    <ellipse cx="92" cy="75" rx="8" ry="5" fill="#FFFFFF" opacity="0.5"/>
  </g>
  
  <!-- Heart 2 - Medium peach -->
  <g>
    <path d="M 220 100 C 220 100 200 87 200 73 C 200 63 205 58 211 58 C 216 58 219 61 220 65 C 221 61 224 58 229 58 C 235 58 240 63 240 73 C 240 87 220 100 220 100 Z" fill="#FFFFFF"/>
    <path d="M 220 96 C 220 96 202 85 202 73 C 202 64 206 60 211 60 C 215 60 218 63 220 66 C 222 63 225 60 229 60 C 234 60 238 64 238 73 C 238 85 220 96 220 96 Z" fill="none" stroke="#8B6F47" stroke-width="3"/>
    <path d="M 220 94 C 220 94 204 84 204 73 C 204 65 207 62 211 62 C 215 62 218 64 220 67 C 222 64 225 62 229 62 C 233 62 236 65 236 73 C 236 84 220 94 220 94 Z" fill="#FFDAB9"/>
    <ellipse cx="214" cy="70" rx="6" ry="4" fill="#FFFFFF" opacity="0.5"/>
  </g>
  
  <!-- Heart 3 - Small baby pink -->
  <g>
    <path d="M 320 80 C 320 80 308 72 308 64 C 308 58 311 55 315 55 C 318 55 320 57 320 59 C 320 57 322 55 325 55 C 329 55 332 58 332 64 C 332 72 320 80 320 80 Z" fill="#FFFFFF"/>
    <path d="M 320 77 C 320 77 310 70 310 64 C 310 59 312 57 315 57 C 317 57 319 59 320 60 C 321 59 323 57 325 57 C 328 57 330 59 330 64 C 330 70 320 77 320 77 Z" fill="none" stroke="#8B6F47" stroke-width="2.5"/>
    <path d="M 320 75 C 320 75 312 69 312 64 C 312 60 313 58 315 58 C 317 58 319 59 320 61 C 321 59 323 58 325 58 C 327 58 328 60 328 64 C 328 69 320 75 320 75 Z" fill="#FFD4E5"/>
  </g>
  
  <!-- Heart 4 - Large peach -->
  <g>
    <path d="M 450 120 C 450 120 420 100 420 80 C 420 65 428 58 436 58 C 443 58 448 62 450 68 C 452 62 457 58 464 58 C 472 58 480 65 480 80 C 480 100 450 120 450 120 Z" fill="#FFFFFF"/>
    <path d="M 450 115 C 450 115 423 97 423 80 C 423 67 429 61 436 61 C 442 61 447 65 450 70 C 453 65 458 61 464 61 C 471 61 477 67 477 80 C 477 97 450 115 450 115 Z" fill="none" stroke="#8B6F47" stroke-width="4"/>
    <path d="M 450 112 C 450 112 426 96 426 80 C 426 69 431 64 437 64 C 442 64 447 67 450 71 C 453 67 458 64 463 64 C 469 64 474 69 474 80 C 474 96 450 112 450 112 Z" fill="#FFDAB9"/>
    <ellipse cx="442" cy="75" rx="8" ry="5" fill="#FFFFFF" opacity="0.5"/>
  </g>
  
  <!-- Heart 5 - Tiny baby pink -->
  <g>
    <path d="M 100 230 C 100 230 92 225 92 220 C 92 217 94 215 96 215 C 97 215 98 216 100 217 C 102 216 103 215 104 215 C 106 215 108 217 108 220 C 108 225 100 230 100 230 Z" fill="#FFFFFF"/>
    <path d="M 100 228 C 100 228 94 224 94 220 C 94 218 95 216 96 216 C 97 216 98 217 100 218 C 102 217 103 216 104 216 C 105 216 106 218 106 220 C 106 224 100 228 100 228 Z" fill="none" stroke="#8B6F47" stroke-width="2"/>
    <path d="M 100 226 C 100 226 95 223 95 220 C 95 218 96 217 97 217 C 98 217 99 218 100 219 C 101 218 102 217 103 217 C 104 217 105 218 105 220 C 105 223 100 226 100 226 Z" fill="#FFD4E5"/>
  </g>
  
  <!-- Heart 6 - Medium-small peach -->
  <g>
    <path d="M 200 250 C 200 250 185 238 185 227 C 185 220 189 216 194 216 C 198 216 201 218 200 221 C 199 218 202 216 206 216 C 211 216 215 220 215 227 C 215 238 200 250 200 250 Z" fill="#FFFFFF"/>
    <path d="M 200 247 C 200 247 187 236 187 227 C 187 221 190 218 194 218 C 197 218 200 220 200 222 C 200 220 203 218 206 218 C 210 218 213 221 213 227 C 213 236 200 247 200 247 Z" fill="none" stroke="#8B6F47" stroke-width="3"/>
    <path d="M 200 245 C 200 245 189 235 189 227 C 189 222 191 219 194 219 C 197 219 199 221 200 223 C 201 221 203 219 206 219 C 209 219 211 222 211 227 C 211 235 200 245 200 245 Z" fill="#FFDAB9"/>
    <ellipse cx="195" cy="225" rx="5" ry="3" fill="#FFFFFF" opacity="0.5"/>
  </g>
  
  <!-- Heart 7 - Medium baby pink -->
  <g>
    <path d="M 330 220 C 330 220 310 207 310 193 C 310 183 315 178 321 178 C 326 178 329 181 330 185 C 331 181 334 178 339 178 C 345 178 350 183 350 193 C 350 207 330 220 330 220 Z" fill="#FFFFFF"/>
    <path d="M 330 216 C 330 216 312 205 312 193 C 312 184 316 180 321 180 C 325 180 328 183 330 186 C 332 183 335 180 339 180 C 344 180 348 184 348 193 C 348 205 330 216 330 216 Z" fill="none" stroke="#8B6F47" stroke-width="3"/>
    <path d="M 330 214 C 330 214 314 204 314 193 C 314 185 317 182 321 182 C 325 182 328 184 330 187 C 332 184 335 182 339 182 C 343 182 346 185 346 193 C 346 204 330 214 330 214 Z" fill="#FFD4E5"/>
    <ellipse cx="324" cy="190" rx="6" ry="4" fill="#FFFFFF" opacity="0.5"/>
  </g>
  
  <!-- Heart 8 - Small peach -->
  <g>
    <path d="M 470 240 C 470 240 458 232 458 224 C 458 218 461 215 465 215 C 468 215 470 217 470 219 C 470 217 472 215 475 215 C 479 215 482 218 482 224 C 482 232 470 240 470 240 Z" fill="#FFFFFF"/>
    <path d="M 470 237 C 470 237 460 230 460 224 C 460 219 462 217 465 217 C 467 217 469 219 470 220 C 471 219 473 217 475 217 C 478 217 480 219 480 224 C 480 230 470 237 470 237 Z" fill="none" stroke="#8B6F47" stroke-width="2.5"/>
    <path d="M 470 235 C 470 235 462 229 462 224 C 462 220 463 218 465 218 C 467 218 469 219 470 221 C 471 219 473 218 475 218 C 477 218 478 220 478 224 C 478 229 470 235 470 235 Z" fill="#FFDAB9"/>
  </g>
  
  <!-- Heart 9 - Tiny peach -->
  <g>
    <path d="M 150 330 C 150 330 142 325 142 320 C 142 317 144 315 146 315 C 147 315 148 316 150 317 C 152 316 153 315 154 315 C 156 315 158 317 158 320 C 158 325 150 330 150 330 Z" fill="#FFFFFF"/>
    <path d="M 150 328 C 150 328 144 324 144 320 C 144 318 145 316 146 316 C 147 316 148 317 150 318 C 152 317 153 316 154 316 C 155 316 156 318 156 320 C 156 324 150 328 150 328 Z" fill="none" stroke="#8B6F47" stroke-width="2"/>
    <path d="M 150 326 C 150 326 145 323 145 320 C 145 318 146 317 147 317 C 148 317 149 318 150 319 C 151 318 152 317 153 317 C 154 317 155 318 155 320 C 155 323 150 326 150 326 Z" fill="#FFDAB9"/>
  </g>
  
  <!-- Heart 10 - Medium-large baby pink -->
  <g>
    <path d="M 380 330 C 380 330 355 313 355 293 C 355 280 362 273 371 273 C 378 273 383 277 380 282 C 377 277 382 273 389 273 C 398 273 405 280 405 293 C 405 313 380 330 380 330 Z" fill="#FFFFFF"/>
    <path d="M 380 325 C 380 325 358 310 358 293 C 358 281 364 275 371 275 C 377 275 382 279 380 283 C 378 279 383 275 389 275 C 396 275 402 281 402 293 C 402 310 380 325 380 325 Z" fill="none" stroke="#8B6F47" stroke-width="4"/>
    <path d="M 380 322 C 380 322 361 308 361 293 C 361 283 366 277 372 277 C 377 277 381 280 380 284 C 379 280 383 277 388 277 C 394 277 399 283 399 293 C 399 308 380 322 380 322 Z" fill="#FFD4E5"/>
    <ellipse cx="373" cy="288" rx="7" ry="5" fill="#FFFFFF" opacity="0.5"/>
  </g>
</svg>
